X: 4
T: Pray be quiet
%R: reel
B: Thomas Wilson, Harmony "Four New Country Dances" #4
F: https://archive.org/details/Wilson4NewCountryDances
Z: 2015 John Chambers <jc:trillian.mit.edu>
M: 2/4
L: 1/16
Q: "Allegro"
K: G
% - - - - - - - - - - - - - - - - - - - - - - - - - - - - -
V: 1 clef=treble middle=B
|:\
dcBA G2e2 | cBAG F2d2  |\
BAGF E2c2 | cBAG F2D2 :|\
|:\
GABc d2D2 | EFGA B2B,2 |
CDEF GABG | ABAG F2D2 :|\
|:\
dcBA G2e2 | cBAG F2d2  |\
BAGF E2c2 | FGAF G4   :|
% - - - - - - - - - - - - - - - - - - - - - - - - - - - - -
V: 2 clef=bass middle=d
|: g4 e4 | f4 d4 | e4 c4 | d4    D4  :|
|: g4 d4 | e4 B4 | c4 B4 | c2^c2 d4  :|
|: g4 e4 | f4 d4 | e4 c4 | d4 [g4G4] :|
% - - - - - - - - - - Dance description - - - - - - - - - -
%%text  SINGLE FIGURE (each strain repeated)
%%begintext align
%% Hands across and back again. |: lead down the
%% middle up again, right and left |: and set contrary
%% corners |: .
%%endtext
%%text  DOUBLE FIGURE (the tune played twice thro')
%%begintext align
%% Set & half right & left, set and back again |: swing with
%% right hands (round the 2d Cu:) then with left |: the Lady
%% whole figure round the top Cu: & the Gent: round the bottom |: set
%% contrary corners |: lead thro' bottom & top |: & lead outsides |:
%%endtext
